images_elementary_svg/cmd/32/ca/italic.svg

<svg height="32" width="32" xmlns="http://www.w3.org/2000/svg" xmlns:xlink="http://www.w3.org/1999/xlink"><radialGradient id="a" cx="9.853718" cy="15.261165" gradientTransform="matrix(-1.8379721 -.00000004 .00000006 -2.5063262 29.157609 49.983682)" gradientUnits="userSpaceOnUse" r="4.455698"><stop offset="0" stop-color="#737373"/><stop offset=".26238" stop-color="#636363"/><stop offset=".704952" stop-color="#4b4b4b"/><stop offset="1" stop-color="#3f3f3f"/></radialGradient><radialGradient id="b" cx="40" cy="43.5" gradientTransform="matrix(1 0 0 .75 -24.468372 9.875001)" gradientUnits="userSpaceOnUse" r="2" xlink:href="#c"/><linearGradient id="c"><stop offset="0"/><stop offset="1" stop-opacity="0"/></linearGradient><radialGradient id="d" cx="9" cy="43.5" gradientTransform="matrix(1 0 0 .75 -4 9.875)" gradientUnits="userSpaceOnUse" r="2" xlink:href="#c"/><linearGradient id="e" gradientUnits="userSpaceOnUse" x1="16" x2="16" y1="44" y2="41"><stop offset="0" stop-opacity="0"/><stop offset=".5"/><stop offset="1" stop-opacity="0"/></linearGradient><g transform="matrix(.80709274 0 0 1.3158295 6.443748 -29.44901)"><path d="m15.531627 41v3h.5c.831 0 1.500001-.669 1.500001-1.5s-.669001-1.5-1.500001-1.5z" fill="url(#b)" opacity=".2"/><path d="m4.40625 41c-.7790625 0-1.40625.627187-1.40625 1.40625v.1875c0 .779063.6271875 1.40625 1.40625 1.40625h.59375v-3z" fill="url(#d)" opacity=".2"/><path d="m5 41h10.531627v3h-10.531627z" fill="url(#e)" opacity=".2"/></g><path d="m13.719718 14.381351q-1.144029 0-2.159757.438367-1.015727.427675-1.8390008 1.240256-.8232737.812582-1.4113263 1.977996-.5880527 1.165413-.8874249 2.630199-.2993723 1.507553-.2245292 2.683658.085535 1.165414.555977 1.967304.4704421.80189 1.3257914 1.218872.8660412.416983 2.1276818.416983.951576 0 1.839001-.181762.898116-.192453 1.774849-.438366l-.342139 1.732082q-.449059.160378-.898117.288681-.438367.11761-.908809.192453-.470442.07484-.994343.106919-.523902.04277-1.154722.04277-1.7534659 0-2.9188793-.57736-1.1654134-.577364-1.7962335-1.635859-.6308202-1.058495-.7377388-2.544664-.1069187-1.48617.2566048-3.293095.3528316-1.77485 1.1119541-3.250327.7591225-1.475478 1.8710766-2.533973 1.1226459-1.058494 2.5767401-1.646547 1.454093-.588053 3.186176-.588053 1.154721 0 2.149065.235221 1.005035.235221 1.753466.68428l-1.165413 1.667931q-.598745-.34214-1.347176-.588053-.737738-.245913-1.742774-.245913z" fill="url(#a)" stroke="#000" stroke-opacity=".6" stroke-width=".755143" transform="matrix(1.34425737 0 0 1.30542782 .527073 -10.963391)"/><path d="m19.443359 5.5214844c-1.552243 0-2.978132.2558046-4.28125.7675781-1.303117.5117735-2.45876 1.2291983-3.464843 2.1503906-.996502.9211924-1.8353214 2.0225539-2.5156254 3.3066409-.680304 1.284086-1.177943 2.699515-1.4941406 4.24414-.3163566 1.527057-.4308139 2.919772-.3496094 4.183594.0432536-.846029.153352-1.736257.3496094-2.683594.3161976-1.544625.8138366-2.960054 1.4941406-4.24414.680304-1.284087 1.5191234-2.385449 2.5156254-3.3066409 1.006083-.9211923 2.161726-1.6386171 3.464843-2.1503906 1.303118-.5117735 2.729007-.7675781 4.28125-.7675781 1.034829 0 1.999523.1019312 2.890625.3066406.568866.1292931 1.07365.3101419 1.550782.5136719l.804687-1.1191407c-.670722-.3908088-1.454784-.6898218-2.355469-.8945312-.891102-.2047094-1.855796-.3066406-2.890625-.3066406zm-9.228515 14.1015626c-.032633.49038-.040397.960793-.011719 1.398437.076654 1.014242.324497 1.870487.746094 2.56836s1.016663 1.22695 1.783203 1.589844c.776121.362893 1.728729.544921 2.859375.544921.852775 0 1.677371-.080096 2.472656-.238281.696274-.144892 1.382521-.316384 2.064453-.496094l.322266-1.576172c-.785703.214015-1.581852.404777-2.386719.572266-.795285.158185-1.619881.238281-2.472656.238281-1.130646 0-2.083254-.182028-2.859375-.544921-.76654-.362894-1.361606-.891971-1.783203-1.589844-.406956-.673638-.64882-1.498382-.734375-2.466797z" fill="#fff" opacity=".2" transform="translate(-.000001)"/></svg>

<?xml version="1.0" encoding="UTF-8" standalone="no"?>
<svg
   xmlns:dc="http://purl.org/dc/elements/1.1/"
   xmlns:cc="http://creativecommons.org/ns#"
   xmlns:rdf="http://www.w3.org/1999/02/22-rdf-syntax-ns#"
   xmlns:svg="http://www.w3.org/2000/svg"
   xmlns="http://www.w3.org/2000/svg"
   xmlns:xlink="http://www.w3.org/1999/xlink"
   xmlns:sodipodi="http://sodipodi.sourceforge.net/DTD/sodipodi-0.dtd"
   xmlns:inkscape="http://www.inkscape.org/namespaces/inkscape"
   height="32"
   width="32"
   version="1.1"
   id="svg41"
   sodipodi:docname="italic.svg"
   inkscape:version="0.92.4 (unknown)"
   inkscape:export-filename="/home/rizmut/Dokumen/Rizmut/Github/libreoffice-style-elementary/images_elementary/cmd/32/ca/italic.png"
   inkscape:export-xdpi="96"
   inkscape:export-ydpi="96">
  <metadata
     id="metadata47">
    <rdf:RDF>
      <cc:Work
         rdf:about="">
        <dc:format>image/svg+xml</dc:format>
        <dc:type
           rdf:resource="http://purl.org/dc/dcmitype/StillImage" />
        <dc:title />
      </cc:Work>
    </rdf:RDF>
  </metadata>
  <defs
     id="defs45">
    <radialGradient
       inkscape:collect="always"
       xlink:href="#e"
       id="radialGradient903"
       cx="9.8537178"
       cy="15.261165"
       fx="9.8537178"
       fy="15.261165"
       r="4.4556975"
       gradientTransform="matrix(-1.8379721,-4.395213e-8,5.9934664e-8,-2.5063262,29.157609,49.983682)"
       gradientUnits="userSpaceOnUse" />
  </defs>
  <sodipodi:namedview
     pagecolor="#ffffff"
     bordercolor="#666666"
     borderopacity="1"
     objecttolerance="10"
     gridtolerance="10"
     guidetolerance="10"
     inkscape:pageopacity="0"
     inkscape:pageshadow="2"
     inkscape:window-width="1366"
     inkscape:window-height="714"
     id="namedview43"
     showgrid="true"
     inkscape:zoom="11.313709"
     inkscape:cx="0.51809064"
     inkscape:cy="13.266387"
     inkscape:window-x="0"
     inkscape:window-y="28"
     inkscape:window-maximized="1"
     inkscape:current-layer="g39">
    <inkscape:grid
       type="xygrid"
       id="grid854" />
  </sodipodi:namedview>
  <radialGradient
     id="a"
     cx="40"
     cy="43.5"
     gradientTransform="matrix(1,0,0,0.75,-24.468372,9.8750008)"
     gradientUnits="userSpaceOnUse"
     r="2"
     xlink:href="#b" />
  <linearGradient
     id="b">
    <stop
       offset="0"
       id="stop3" />
    <stop
       offset="1"
       stop-opacity="0"
       id="stop5" />
  </linearGradient>
  <radialGradient
     id="c"
     cx="9"
     cy="43.5"
     gradientTransform="matrix(1,0,0,0.75,-4,9.875)"
     gradientUnits="userSpaceOnUse"
     r="2"
     xlink:href="#b" />
  <linearGradient
     id="d"
     gradientUnits="userSpaceOnUse"
     x1="16"
     x2="16"
     y1="44"
     y2="41">
    <stop
       offset="0"
       stop-opacity="0"
       id="stop9" />
    <stop
       offset=".5"
       id="stop11" />
    <stop
       offset="1"
       stop-opacity="0"
       id="stop13" />
  </linearGradient>
  <radialGradient
     id="e"
     cx="12.279661"
     cy="7.140932"
     gradientTransform="matrix(-3.1675784,0.07135103,-0.0749702,-3.3513607,41.983743,34.643483)"
     gradientUnits="userSpaceOnUse"
     r="5.015671">
    <stop
       offset="0"
       stop-color="#737373"
       id="stop16" />
    <stop
       offset=".26238"
       stop-color="#636363"
       id="stop18" />
    <stop
       offset=".704952"
       stop-color="#4b4b4b"
       id="stop20" />
    <stop
       offset="1"
       stop-color="#3f3f3f"
       id="stop22" />
  </radialGradient>
  <g
     transform="matrix(1.333631 0 0 1.3158295 .527073 -10.963391)"
     id="g39">
    <g
       transform="matrix(0.60518445,0,0,1,4.4365155,-14.048643)"
       id="g31">
      <path
         d="m 15.531627,41 v 3 h 0.5 c 0.831,0 1.500001,-0.669 1.500001,-1.5 0,-0.831 -0.669001,-1.5 -1.500001,-1.5 z"
         id="path25"
         style="opacity:0.2;fill:url(#a)"
         inkscape:connector-curvature="0" />
      <path
         d="M 4.40625,41 C 3.6271875,41 3,41.627187 3,42.40625 v 0.1875 C 3,43.372813 3.6271875,44 4.40625,44 H 5 v -3 z"
         id="path27"
         style="opacity:0.2;fill:url(#c)"
         inkscape:connector-curvature="0" />
      <path
         d="m 5,41 h 10.531627 v 3 H 5 Z"
         id="path29"
         style="opacity:0.2;fill:url(#d)"
         inkscape:connector-curvature="0"
         sodipodi:nodetypes="ccccc" />
    </g>
    <g
       aria-label="C"
       transform="scale(1.007968,0.99209496)"
       style="font-style:normal;font-variant:normal;font-weight:normal;font-stretch:normal;font-size:29.77981758px;line-height:1.25;font-family:'Droid Sans';-inkscape-font-specification:'Droid Sans';letter-spacing:0px;word-spacing:0px;fill:url(#radialGradient903);fill-opacity:1;stroke:#000000;stroke-width:0.75514346;stroke-miterlimit:4;stroke-dasharray:none;stroke-opacity:0.6"
       id="text858">
      <path
         d="m 13.719718,14.381351 q -1.144029,0 -2.159757,0.438367 -1.015727,0.427675 -1.8390008,1.240256 -0.8232737,0.812582 -1.4113263,1.977996 -0.5880527,1.165413 -0.8874249,2.630199 -0.2993723,1.507553 -0.2245292,2.683658 0.085535,1.165414 0.555977,1.967304 0.4704421,0.80189 1.3257914,1.218872 0.8660412,0.416983 2.1276818,0.416983 0.951576,0 1.839001,-0.181762 0.898116,-0.192453 1.774849,-0.438366 l -0.342139,1.732082 q -0.449059,0.160378 -0.898117,0.288681 -0.438367,0.11761 -0.908809,0.192453 -0.470442,0.07484 -0.994343,0.106919 -0.523902,0.04277 -1.154722,0.04277 -1.7534659,0 -2.9188793,-0.57736 Q 6.4385573,27.543039 5.8077372,26.484544 5.176917,25.426049 5.0699984,23.93988 4.9630797,22.45371 5.3266032,20.646785 q 0.3528316,-1.77485 1.1119541,-3.250327 0.7591225,-1.475478 1.8710766,-2.533973 1.1226459,-1.058494 2.5767401,-1.646547 1.454093,-0.588053 3.186176,-0.588053 1.154721,0 2.149065,0.235221 1.005035,0.235221 1.753466,0.68428 l -1.165413,1.667931 q -0.598745,-0.34214 -1.347176,-0.588053 -0.737738,-0.245913 -1.742774,-0.245913 z"
         style="font-style:italic;font-size:21.89694214px;fill:url(#radialGradient903);fill-opacity:1;stroke:#000000;stroke-width:0.75514346;stroke-miterlimit:4;stroke-dasharray:none;stroke-opacity:0.6"
         id="path835" />
    </g>
    <path
       style="font-style:normal;font-variant:normal;font-weight:normal;font-stretch:normal;font-size:29.77981758px;line-height:1.25;font-family:'Droid Sans';-inkscape-font-specification:'Droid Sans';letter-spacing:0px;word-spacing:0px;opacity:0.2;fill:#ffffff;fill-opacity:1;stroke:none;stroke-width:1.00033879;stroke-miterlimit:4;stroke-dasharray:none;stroke-opacity:0.6"
       d="M 19.443359 5.5214844 C 17.891116 5.5214844 16.465227 5.777289 15.162109 6.2890625 C 13.858992 6.800836 12.703349 7.5182608 11.697266 8.4394531 C 10.700764 9.3606455 9.8619446 10.462007 9.1816406 11.746094 C 8.5013366 13.03018 8.0036976 14.445609 7.6875 15.990234 C 7.3711434 17.517291 7.2566861 18.910006 7.3378906 20.173828 C 7.3811442 19.327799 7.4912426 18.437571 7.6875 17.490234 C 8.0036976 15.945609 8.5013366 14.53018 9.1816406 13.246094 C 9.8619446 11.962007 10.700764 10.860645 11.697266 9.9394531 C 12.703349 9.0182608 13.858992 8.300836 15.162109 7.7890625 C 16.465227 7.277289 17.891116 7.0214844 19.443359 7.0214844 C 20.478188 7.0214844 21.442882 7.1234156 22.333984 7.328125 C 22.90285 7.4574181 23.407634 7.6382669 23.884766 7.8417969 L 24.689453 6.7226562 C 24.018731 6.3318474 23.234669 6.0328344 22.333984 5.828125 C 21.442882 5.6234156 20.478188 5.5214844 19.443359 5.5214844 z M 10.214844 19.623047 C 10.182211 20.113427 10.174447 20.58384 10.203125 21.021484 C 10.279779 22.035726 10.527622 22.891971 10.949219 23.589844 C 11.370816 24.287717 11.965882 24.816794 12.732422 25.179688 C 13.508543 25.542581 14.461151 25.724609 15.591797 25.724609 C 16.444572 25.724609 17.269168 25.644513 18.064453 25.486328 C 18.760727 25.341436 19.446974 25.169944 20.128906 24.990234 L 20.451172 23.414062 C 19.665469 23.628077 18.86932 23.818839 18.064453 23.986328 C 17.269168 24.144513 16.444572 24.224609 15.591797 24.224609 C 14.461151 24.224609 13.508543 24.042581 12.732422 23.679688 C 11.965882 23.316794 11.370816 22.787717 10.949219 22.089844 C 10.542263 21.416206 10.300399 20.591462 10.214844 19.623047 z "
       transform="matrix(0.7498326,0,0,0.75997688,-0.39521652,8.3319237)"
       id="text1651" />
  </g>
</svg>
